!!!!SEGMENT:37SekinoGohonmatu_c.krn
!!!OTL: 關の五本松
!!!OPR:Eiga Banso Kyokusyu,jidai-geki,zenpen
!!!YOY:1929
!!!ONB:Matubayashi
**kern
*clefG2
*C:
*M2/4
=1
8ff#L
8eeJ
8ddL
8bJ
=2
8ddL
8eeJ
8ff#L
8eeJ
=3
8ff#L
8ff#J
8eL
8eeJ
=4
8ff#L
8ff#J
8eL
8eeJ
=5
8ff#L
8ff#J
8eL
8eeJ
=6
8ff#L
8ff#J
8eL
8eeJ
=7
8ff#L
8ff#J
8eL
8eeJ
=8
8ff#L
8ff#J
8eL
8eeJ
=9
8ff#
8r
8aL
8bJ
=10
8ff#
8r
4ee
=11
8dd
8r
8ff#L
8ff#J
=12
8.eeL
16ddJk
8bL
8aJ
=13
8b
8r
8aL
8bJ
=14
8ee
8r
8dd
8r
=15
8b
8r
8aL
8f#J
=16
8aL
8bJ
8ddL
8ddJ
=17
8b
8r
8eeL
8ddJ
=18
8b
8r
8a
8r
=19
8f#
8r
8aL
8f#J
=20
8f#
8r
8aL
8f#J
=21
8f#
8r
8f#L
8aJ
=22
8b
8r
8eeL
8ddJ
=23
8bL
8eeJ
8ff#L
8aJ
=24
4b
8eL
8eeJ
=25
4b
4r
==
*-
!!!ENC: Yukiko Yoden
!!!END: 2023/06/11
